X:129
T:St. Patrick's Day 
C:Joe Buchanan's Scottish Tome - Page 253.1
I:253 1
R:Jig
Z:Carl Allison
L:1/8
M:6/8
K:A
|: E | ABA ABc | efe ecA | BAB cAE | FGF F2 E |
ABA ABc | efe ecA | BAB cAE | F2 GA2 e |]
efg a2 f | g2 e fec | efg a2 f | gfe f2 a |
ABA Acd | efe ecA | Bcd cAE | F2 GA2 :|

